cursors/src/svg/center_ptr.svg

<?xml version="1.0" encoding="UTF-8" standalone="no"?>
<svg
   xmlns:dc="http://purl.org/dc/elements/1.1/"
   xmlns:cc="http://creativecommons.org/ns#"
   xmlns:rdf="http://www.w3.org/1999/02/22-rdf-syntax-ns#"
   xmlns:svg="http://www.w3.org/2000/svg"
   xmlns="http://www.w3.org/2000/svg"
   xmlns:sodipodi="http://sodipodi.sourceforge.net/DTD/sodipodi-0.dtd"
   xmlns:inkscape="http://www.inkscape.org/namespaces/inkscape"
   width="32"
   height="32"
   version="1.1"
   viewBox="0 0 32 32"
   id="svg15"
   sodipodi:docname="center_ptr.svg"
   inkscape:version="1.0.2 (e86c870879, 2021-01-15)">
  <metadata
     id="metadata19">
    <rdf:RDF>
      <cc:Work
         rdf:about="">
        <dc:format>image/svg+xml</dc:format>
        <dc:type
           rdf:resource="http://purl.org/dc/dcmitype/StillImage" />
      </cc:Work>
    </rdf:RDF>
  </metadata>
  <sodipodi:namedview
     pagecolor="#f5f5f5"
     bordercolor="#666666"
     borderopacity="1"
     objecttolerance="10"
     gridtolerance="10"
     guidetolerance="10"
     inkscape:pageopacity="0"
     inkscape:pageshadow="2"
     inkscape:window-width="1366"
     inkscape:window-height="696"
     id="namedview17"
     showgrid="true"
     inkscape:snap-global="true"
     inkscape:zoom="5.0303226"
     inkscape:cx="-11.596289"
     inkscape:cy="27.175857"
     inkscape:window-x="0"
     inkscape:window-y="0"
     inkscape:window-maximized="1"
     inkscape:current-layer="svg15"
     inkscape:document-rotation="0"
     inkscape:snap-bbox="true"
     inkscape:bbox-nodes="true"
     inkscape:snap-bbox-edge-midpoints="true">
    <inkscape:grid
       type="xygrid"
       id="grid845" />
  </sodipodi:namedview>
  <defs
     id="defs5">
    <filter
       inkscape:collect="always"
       style="color-interpolation-filters:sRGB"
       id="filter853"
       x="-0.18373326"
       width="1.3674665"
       y="-0.12250744"
       height="1.2450149">
      <feGaussianBlur
         inkscape:collect="always"
         stdDeviation="1.0719286"
         id="feGaussianBlur855" />
    </filter>
  </defs>
  <path
     style="color:#000000;font-style:normal;font-variant:normal;font-weight:normal;font-stretch:normal;font-size:medium;line-height:normal;font-family:sans-serif;font-variant-ligatures:normal;font-variant-position:normal;font-variant-caps:normal;font-variant-numeric:normal;font-variant-alternates:normal;font-variant-east-asian:normal;font-feature-settings:normal;font-variation-settings:normal;text-indent:0;text-align:start;text-decoration:none;text-decoration-line:none;text-decoration-style:solid;text-decoration-color:#000000;letter-spacing:normal;word-spacing:normal;text-transform:none;writing-mode:lr-tb;direction:ltr;text-orientation:mixed;dominant-baseline:auto;baseline-shift:baseline;text-anchor:start;white-space:normal;shape-padding:0;shape-margin:0;inline-size:0;clip-rule:nonzero;display:inline;overflow:visible;visibility:visible;isolation:auto;mix-blend-mode:normal;color-interpolation:sRGB;color-interpolation-filters:linearRGB;solid-color:#000000;solid-opacity:1;vector-effect:none;fill:#000000;fill-opacity:1;fill-rule:nonzero;stroke:none;stroke-linecap:round;stroke-linejoin:round;stroke-miterlimit:4;stroke-dasharray:none;stroke-dashoffset:0;stroke-opacity:1;paint-order:stroke fill markers;color-rendering:auto;image-rendering:auto;shape-rendering:auto;text-rendering:auto;enable-background:accumulate;stop-color:#000000;filter:url(#filter853);opacity:0.35"
     d="M 15.988281,5.0000801 A 1.0001,1.0001 0 0 0 15.080078,5.6055489 L 9.0800781,19.605549 A 1.0001,1.0001 0 0 0 10,21.00008 c 1.937217,-2.5e-5 3.583987,1.371935 3.933594,3.277344 a 1.0001,1.0001 0 0 0 0.34375,0.58789 l 1.082031,0.902344 a 1.0001,1.0001 0 0 0 1.28125,0 l 1.082031,-0.902344 a 1.0001,1.0001 0 0 0 0.34375,-0.58789 C 18.416013,22.372015 20.062783,21.000055 22,21.00008 a 1.0001,1.0001 0 0 0 0.919922,-1.394531 l -6,-14.0000001 A 1.0001,1.0001 0 0 0 15.988281,5.0000801 Z M 16,8.5410957 20.589844,19.252033 c -2.095882,0.518067 -3.758878,2.097855 -4.328125,4.228516 L 16,23.697346 15.738281,23.480549 C 15.169034,21.349888 13.506038,19.7701 11.410156,19.252033 Z"
     id="path851" />
  <path
     style="color:#000000;font-style:normal;font-variant:normal;font-weight:normal;font-stretch:normal;font-size:medium;line-height:normal;font-family:sans-serif;font-variant-ligatures:normal;font-variant-position:normal;font-variant-caps:normal;font-variant-numeric:normal;font-variant-alternates:normal;font-variant-east-asian:normal;font-feature-settings:normal;font-variation-settings:normal;text-indent:0;text-align:start;text-decoration:none;text-decoration-line:none;text-decoration-style:solid;text-decoration-color:#000000;letter-spacing:normal;word-spacing:normal;text-transform:none;writing-mode:lr-tb;direction:ltr;text-orientation:mixed;dominant-baseline:auto;baseline-shift:baseline;text-anchor:start;white-space:normal;shape-padding:0;shape-margin:0;inline-size:0;clip-rule:nonzero;display:inline;overflow:visible;visibility:visible;isolation:auto;mix-blend-mode:normal;color-interpolation:sRGB;color-interpolation-filters:linearRGB;solid-color:#000000;solid-opacity:1;vector-effect:none;fill:#ffffff;fill-opacity:1;fill-rule:nonzero;stroke:none;stroke-linecap:round;stroke-linejoin:round;stroke-miterlimit:4;stroke-dasharray:none;stroke-dashoffset:0;stroke-opacity:1;paint-order:stroke fill markers;color-rendering:auto;image-rendering:auto;shape-rendering:auto;text-rendering:auto;enable-background:accumulate;stop-color:#000000"
     d="M 15.988281,4 A 1.0001,1.0001 0 0 0 15.080078,4.6054688 L 9.0800781,18.605469 A 1.0001,1.0001 0 0 0 10,20 c 1.937217,-2.5e-5 3.583987,1.371935 3.933594,3.277344 a 1.0001,1.0001 0 0 0 0.34375,0.58789 l 1.082031,0.902344 a 1.0001,1.0001 0 0 0 1.28125,0 l 1.082031,-0.902344 a 1.0001,1.0001 0 0 0 0.34375,-0.58789 C 18.416013,21.371935 20.062783,19.999975 22,20 a 1.0001,1.0001 0 0 0 0.919922,-1.394531 l -6,-14.0000002 A 1.0001,1.0001 0 0 0 15.988281,4 Z M 16,7.5410156 20.589844,18.251953 c -2.095882,0.518067 -3.758878,2.097855 -4.328125,4.228516 L 16,22.697266 15.738281,22.480469 C 15.169034,20.349808 13.506038,18.77002 11.410156,18.251953 Z"
     id="path845" />
  <path
     style="color:#000000;font-style:normal;font-variant:normal;font-weight:normal;font-stretch:normal;font-size:medium;line-height:normal;font-family:sans-serif;font-variant-ligatures:normal;font-variant-position:normal;font-variant-caps:normal;font-variant-numeric:normal;font-variant-alternates:normal;font-variant-east-asian:normal;font-feature-settings:normal;font-variation-settings:normal;text-indent:0;text-align:start;text-decoration:none;text-decoration-line:none;text-decoration-style:solid;text-decoration-color:#000000;letter-spacing:normal;word-spacing:normal;text-transform:none;writing-mode:lr-tb;direction:ltr;text-orientation:mixed;dominant-baseline:auto;baseline-shift:baseline;text-anchor:start;white-space:normal;shape-padding:0;shape-margin:0;inline-size:0;clip-rule:nonzero;display:inline;overflow:visible;visibility:visible;isolation:auto;mix-blend-mode:normal;color-interpolation:sRGB;color-interpolation-filters:linearRGB;solid-color:#000000;solid-opacity:1;vector-effect:none;fill:#333333;fill-opacity:1;fill-rule:nonzero;stroke:none;stroke-width:2;stroke-linecap:round;stroke-linejoin:round;stroke-miterlimit:4;stroke-dasharray:none;stroke-dashoffset:0;stroke-opacity:1;paint-order:stroke fill markers;color-rendering:auto;image-rendering:auto;shape-rendering:auto;text-rendering:auto;enable-background:accumulate;stop-color:#000000"
     d="m 16,5 -6,14 c 2.413421,-3.2e-5 4.482422,1.723862 4.917969,4.097656 L 16,24 17.082031,23.097656 C 17.517578,20.723862 19.586579,18.999968 22,19 Z"
     id="path847" />
</svg>

<?xml version="1.0" encoding="UTF-8" standalone="no"?>
<!DOCTYPE svg PUBLIC "-//W3C//DTD SVG 1.1//EN" "http://www.w3.org/Graphics/SVG/1.1/DTD/svg11.dtd">
<svg width="100%" height="100%" viewBox="0 0 32 32" version="1.1" xmlns="http://www.w3.org/2000/svg" xmlns:xlink="http://www.w3.org/1999/xlink" xml:space="preserve" xmlns:serif="http://www.serif.com/" style="fill-rule:evenodd;clip-rule:evenodd;stroke-linejoin:round;stroke-miterlimit:2;">
    <use id="path851" xlink:href="#_Image1" x="5.783" y="1.784" width="20px" height="27px"/>
    <path id="path845" d="M15.988,4C15.593,4.004 15.236,4.242 15.08,4.605L9.08,18.605C9.027,18.73 8.999,18.864 8.999,19C8.999,19.549 9.45,20 9.999,20C9.999,20 10,20 10,20C11.937,20 13.584,21.372 13.934,23.277C13.976,23.507 14.098,23.716 14.277,23.865L15.359,24.768C15.729,25.076 16.271,25.076 16.641,24.768L17.723,23.865C17.902,23.716 18.024,23.507 18.066,23.277C18.416,21.372 20.063,20 22,20C22,20 22.001,20 22.001,20C22.55,20 23.001,19.549 23.001,19C23.001,18.864 22.973,18.73 22.92,18.605L16.92,4.605C16.761,4.235 16.392,3.995 15.988,4ZM16,7.541L20.59,18.252C18.494,18.77 16.831,20.35 16.262,22.48L16,22.697L15.738,22.48C15.169,20.35 13.506,18.77 11.41,18.252L16,7.541Z" style="fill:white;fill-rule:nonzero;"/>
    <path id="path847" d="M16,5L10,19C12.413,19 14.482,20.724 14.918,23.098L16,24L17.082,23.098C17.518,20.724 19.587,19 22,19L16,5Z" style="fill-rule:nonzero;"/>
    <defs>
        <image id="_Image1" width="20px" height="27px" xlink:href="data:image/png;base64,iVBORw0KGgoAAAANSUhEUgAAABQAAAAbCAYAAAB836/YAAAACXBIWXMAAA7EAAAOxAGVKw4bAAABsElEQVRIiZWV23LDIAxE1zY4zbT//6dNE1+gD9m11yqNW2YYzO2wSELucF66xlj9bXE6Aan2BiqvoMMLYM+aAYxsHfwvhVKWAbwBuLA/A7gTuLbAr4ADlb0DuFLdg/OFtYvQFlDqEpVdAXwQmKhsBrBgt+epwgHP615YRwIrdntOhBdX2QeQPCpgxtFxsutIMXF/U6GuNtr8zLZg93zm+ME5EShnuLqFG6spksqJ81XQFGCuLpu6iRv8oGzXLmdAbarYY89DRWukcuV4TQbTQn8VC56x9+AmiUgGzbAQci+57XSQ7DeFVs7R4QP7nYAeKiO/CzcriJfQb4ZQ33CGB/Fq11FVv2WiTaGHS+J3Z3MdfuZFd+C2J+GY8/zbbargzQGAsHczvhKnrqhceOGYYk3pTDGq9dtr0SmuzlVKqWylZNETcgfwxXYGsMaMLaXV7OrOGjm+EHIjUHFahgZMKUnKPZSUtb8AfLLVey6wl6JssU2w7wbvsT/Dm8Fkv4MNY6mhVfwJttkMIWu38qGu7jnwQZUrVXnaOpTWT1ylx9HTOmxFuOZfgZr3V+KQ5r/5G6jTndnkIRjTAAAAAElFTkSuQmCC"/>
    </defs>
</svg>
